!!!COM: MacDowell, Edward
!!!CDT: 1860/12/18/-1908/01/23/
!!!OTL: Amourette
!!!ODT: 1896///
!!!OPS: Op. 1
!!!OMD: Not fast, with simplicity
**kern	**kern	**dynam
*staff2	*staff1	*staff1/2
*clefF4	*clefG2	*clefG2
*k[b-e-a-d-]	*k[b-e-a-d-]	*k[b-e-a-d-]
*A-:	*A-:	*A-:
*M2/4	*M2/4	*M2/4
*MM110	*MM110	*MM110
=1-	=1-	=1-
*^	*^	*
8r	2AA-\	(4e-/	8r	p
4E-/	.	.	4c\	.
.	.	4cc/	.	.
8E-/	.	.	8c\	.
=2	=2	=2	=2	=2
8r	2AA-\	2bn/)	8r	.
4En/	.	.	4Bn\ 4en\	.
8E/	.	.	8B\ 8e\	.
=3	=3	=3	=3	=3
8r	2AA-\	(4b-/	8r	.
4F/	.	.	4B-\ 4dn\	.
.	.	4f/	.	.
8F/	.	.	8B-\ 8d\	.
=4	=4	=4	=4	=4
8r	2AA-\	4g/	8r	.
(8E-/L	.	.	4d-\	.
8F/	.	8a-/L	.	.
8G/J)	.	8b-/J)	8d-\ 8e-\	.
=5	=5	=5	=5	=5
8r	2AA-\	(4cc/	8r	<
(4G-/	.	.	4c\ 4a-\	.
.	.	4ff/)	.	.
8B-/	.	.	8g-\ 8cc\	.
=6	=6	=6	=6	=6
8r	2D-\	4.ee-/	8r	.
4c/	.	.	4g-\	.
8d-/)	.	&(8dd-/&)	8f\	.
=7	=7	=7	=7	=7
8r	2D-\	(4cc/	8r	.
4A-/	.	.	4f-\	.
.	.	4b-/	.	.
&(8Gn/&)	.	.	8f-\	.
=8	=8	=8	=8	=8
8r	2BB-\	2dd-/)	8r	.
(4A-/	.	.	4d-\ 4fn\	.
8G/)	.	.	8d-\ 8f\	.
*	*	*v	*v	*
=9	=9	=9	=9
8r	2EE-\	8r	.
(8G/L	.	8d-/ (8e-/L	.
8A-/	.	8f/ 8b-/	.
8G/J)	.	8d-/ 8e-/J)	.
=10	=10	=10	=10
(4e-/	2E-\	4g/ (4cc/	>
4d-/)	.	4g/ 4b-/)	.
=11	=11	=11	=11
*	*	*^	*
8r	8AA-\	(4.ff/	8r	.
4f/	4.A-\ 4.c\	.	4.g-\ 4.cc\	.
&(8e-/&)	.	8ee-/	.	.
=12	=12	=12	=12	=12
8r	2DD-\	8r	8r	.
8B-/ (8g-/L	.	4.aa-/)	8a-\ 8ee-\L	.
8A-/ 8f/	.	.	8dd-\	.
8F/ 8d-/J)	.	.	&(8a-\J&)	.
=13	=13	=13	=13	=13
8r	2FF\	(4.dd-/	8r	.
4d-/	.	.	4.e-\ 4.g-\ 4.an\	.
&(8c/&)	.	8cc/	.	.
=14	=14	=14	=14	=14
8r	2BBB-\	2ff/)	8r	.
(8e-/L	.	.	[8f\ (8cc\L	.
8d-/	.	.	8f\] 8b-\	.
8B-/J)	.	.	8f\J)	.
*	*	*v	*v	*
=15	=15	=15	=15
8r	2EE-\	8r	.
(8G/L	.	8d-/ (8e-/L	<
8A-/	.	8f/ 8b-/	>
8G/J)	.	8d-/ 8e-/J)	.
=16	=16	=16	=16
4e-/	2E-\	4g/ (4cc/	>
&(4d-/&)	.	4g/ 4b-/	.
=17	=17	=17	=17
*	*	*^	*
8r	[2AA-\	[2a-/)	8r	.
4E-/	.	.	4c\	.
8E-/	.	.	8c\	.
=18	=18	=18	=18	=18
2E-/	2AA-\]	2a-/]	2c\	.
*v	*v	*	*	*
=19	=19	=19	=19
2F\ 2c\	(8cc/L	2a-\	p
.	8ff/	.	.
.	8ee-/	.	.
.	8ff/J)	.	.
=20	=20	=20	=20
*^	*	*	*
4r	4BB-\ 4F\	8cc/L	4d-\	.
.	.	8b-/J	.	.
8F/L	4FF\	4a-/	4c\	.
8E-/J	.	.	.	.
*v	*v	*	*	*
=21	=21	=21	=21
4D-\ 4A-\	(8cc/L	4f\	<
.	8b-/	.	.
4D-\ 4B-\	8a-/	4f-\	.
.	8dd-/J)	.	.
=22	=22	=22	=22
*^	*	*	*
(4c/	4.En\	(8cc/	4.g\	>
.	.	4b-/	.	.
8d-/L	.	.	.	.
8c/J)	8Fn\	8a-/)	8fn\	.
=23	=23	=23	=23	=23
4G/	8En\L	(8g/L	4c\	<
.	8E-\J	8cc/	.	.
4B-/	&(4D-\&)	8b-/	4f\	.
.	.	8ff/J	.	.
*v	*v	*	*	*
=24	=24	=24	=24
4C\ 4F\ (4An\	8ff/	4e-\	.
.	4ee-/	.	f
4BB-\ 4B-\)	.	4f\	.
.	8dd-/)	.	.
*	*v	*v	*
=25	=25	=25
4AA-\ 4F\ 4c\	(8cc/	>
.	4c/	.
4GG\ 4Bn\	.	.
.	8cc/	.
=26	=26	=26
4GG-\ 4En\ 4B-\	8cc/	.
.	4c/	.
4FF\ 4C\ &(4A-\&)	.	.
.	8f/)	<
=27	=27	=27
*^	*	*
8.G/L	2GG\	8.c/ 8.en/L	.
16An/Jk	.	16c/ 16f/Jk	.
(8Bn/L	.	8c/ (8g/L	.
8c/J)	.	8f/ 8an/ 8een/J)	.
=28	=28	=28	=28
(8An/L	4GG\	4f/ (4ddn/	>
8Bn/J	.	.	.
4c/)	8C\L	4en/ 4cc/)	.
.	8B-\J	.	.
*v	*v	*	*
=29	=29	=29
*	*^	*
4A-\ 4c\	(8cc/L	4f\	p
.	8ff/	.	.
4F\ 4c\	8ee-/	4a-\	.
.	8ff/J)	.	.
=30	=30	=30	=30
*^	*	*	*
4r	4BB-\ 4F\	(8cc/L	4d-\	.
.	.	8b-/J	.	.
8F/L	4FF\	4a-/)	4c\	.
8E-/J	.	.	.	.
*v	*v	*	*	*
=31	=31	=31	=31
4D-\ 4A-\	8cc/L	4f\	<
.	8b-/	.	.
4D-\ 4B-\	8a-/	4f-\	.
.	8dd-/J	.	.
=32	=32	=32	=32
*^	*	*	*
(4c/	4.En\	(8cc/	4.g\	>
.	.	4b-/	.	.
8d-/L	.	.	.	.
8c/J)	8Fn\	8a-/)	8fn\	.
=33	=33	=33	=33	=33
(4Bn/	4Dn\	(8.g/L	4f\	<
.	.	16a-/k	.	.
4c/)	4E-\	8g/	4g\	.
.	.	8bn/J)	.	.
=34	=34	=34	=34	=34
8.c/L	4En\	(8cc/L	4g\	.
.	.	8b-/J	.	.
16d-/Jk	.	.	.	.
4c/	4F\	4a-/	8g\L)	.
.	.	.	8f\J	.
*v	*v	*	*	*
=35	=35	=35	=35
4A-\ 4en\ (4g\	(8.cc/L	4b-\	p
.	16dd-/Jk	.	.
4A-\ 4f\)	8cc/L	&(4a-\&)	<
.	8ff/J)	.	.
=36	=36	=36	=36
*^	*	*	*
2B-/ 2dn/	(4.F\	(8.aa-/L	2a-\	.
.	.	16b-/Jk	.	.
.	.	4b-/)	.	.
.	8F-\	.	.	.
*v	*v	*	*	*
*	*v	*v	*
=37	=37	=37
8E-\) 8c\	8a-\ 8ee-\	.
*clefG2	*	*
8dd-\ (8ff\L	8bb-\ 8aaa-\L	p
8cc\ 8ee-\	8aa-\ 8eee-\	.
8b-\ 8dd-\J	8ff\ 8bb-\J	.
=38	=38	=38
*^	*	*
8cc\ 8ee-\L	4r	8aa-\ 8eee-\L	.
8dd-\ 8ff\J	.	8gg\ 8bb-\J	.
4b-\ 4ff-\)	8r	4aa-\ &(4ddd-\&)	.
*clefF4	*clefF4	*	*
.	[8BB-\	.	.
=39	=39	=39	=39
8r	2EE-\ 2BB-\]	8r	.
*v	*v	*	*
*clefG2	*	*
*^	*	*
8a-/L	.	8ff-\ (8bb-\L	pp
8f-/ 8b-/	.	8dd-\ 8aa-\	.
8d-/ 8a-/J	.	8b-\ 8ff-\J	.
*v	*v	*	*
*clefF4	*	*
=40	=40	=40
*^	*	*
8r	2EE-\	8r	.
8A-/	.	8d-/ 8f-/	.
&(4G/&)	.	4d-/ 4e-/ 4b-/)	.
=41	=41	=41	=41
*	*	*^	*
8r	2AA-\	(4e-/	8r	p
4E-/	.	.	4c\	.
.	.	4cc/	.	.
8E-/	.	.	8c\	.
=42	=42	=42	=42	=42
8r	2AA-\	2bn/)	8r	.
4En/	.	.	4Bn\ 4en\	.
8E/	.	.	8B\ 8e\	.
=43	=43	=43	=43	=43
8r	2AA-\	(4b-/	8r	.
4F/	.	.	4B-\ 4dn\	.
.	.	4f/	.	.
8F/	.	.	8B-\ 8d\	.
=44	=44	=44	=44	=44
8r	2AA-\	4g/	8r	.
(8E-/L	.	.	4d-\	<
8F/	.	8a-/L	.	.
8G/J)	.	8b-/J)	8d-\ 8e-\	.
=45	=45	=45	=45	=45
8r	2AA-\	(4cc/	8r	.
(4G-/	.	.	4c\ 4a-\	.
.	.	4ff/)	.	.
8B-/	.	.	8g-\ 8cc\	.
=46	=46	=46	=46	=46
8r	2D-\	4.ee-/	8r	.
4c/	.	.	4g-\	.
8d-/)	.	&(8dd-/&)	8f\	.
=47	=47	=47	=47	=47
8r	2D-\	(4cc/	8r	.
4A-/	.	.	4f-\	.
.	.	4b-/	.	.
&(8Gn/&)	.	.	8f-\	.
=48	=48	=48	=48	=48
8r	2BB-\	2dd-/)	8r	.
(4A-/	.	.	4d-\ 4fn\	.
8G/)	.	.	8d-\ 8f\	.
*	*	*v	*v	*
=49	=49	=49	=49
8r	2EE-\	8r	.
8G/L	.	8d-/ 8e-/L	<
8A-/	.	8f/ 8b-/	>
8G/J	.	8d-/ 8e-/J	.
=50	=50	=50	=50
(4e-/	2E-\	4g/ (4cc/	>
4d-/)	.	4g/ 4b-/)	.
=51	=51	=51	=51
*	*	*^	*
8r	8AA-\	(4.ff/	8r	.
4f/	4.A-\ 4.c\	.	4.g-\ 4.cc\	<
&(8e-/&)	.	8ee-/	.	.
=52	=52	=52	=52	=52
8r	2DD-\	8r	8r	.
8B-/ 8g-/L	.	4.aa-/)	8a-\ (8ee-\L	.
8A-/ 8f/	.	.	8dd-\	.
8F/ 8d-/J	.	.	8a-\J)	.
=53	=53	=53	=53	=53
8r	2FF\	(4.dd-/	8r	<
4d-/	.	.	4.e-\ 4.g-\ (4.an\)	.
&(8c/&)	.	8cc/	.	.
=54	=54	=54	=54	=54
8r	2BBB-\	2ff/)	8r	.
8e-/L	.	.	[8f\ (8cc\L	.
8d-/	.	.	8f\] 8b-\	.
8B-/J	.	.	8f\J)	.
=55	=55	=55	=55	=55
8r	2EE-\	(4e-/	8r	p
4E-/ 4A-/	.	.	4c\	.
.	.	4cc/	.	.
8E-/ 8A-/	.	.	8c\	.
=56	=56	=56	=56	=56
8r	2EE-\	2bn/)	8r	.
4En/ 4A-/	.	.	4Bn\ 4en\	.
8E/ 8A-/	.	.	8B\ 8e\	.
=57	=57	=57	=57	=57
8r	[2EE-\	(4b-/	8r	.
[4.F/	.	.	[4.B-\ [4.dn\	.
.	.	[4f/	.	.
=58	=58	=58	=58	=58
4.F/]	4.EE-\]	4.f/])	4.B-\] 4.d\]	.
8r	8r	8r	8r	.
*	*	*v	*v	*
=59	=59	=59	=59
8r	2EE-\	8r	.
(8G/L	.	8d-/ (8e-/L	<
8A-/	.	8f/ 8b-/	>
8G/J)	.	8d-/ 8e-/J)	.
=60	=60	=60	=60
4e-/	2E-\	4g/ (4cc/	.
&(4d-/&)	.	4g/ 4b-/	.
=61	=61	=61	=61
8r	2AA-\ 2E-\	8c/ 8a-/)	.
*v	*v	*	*
*clefG2	*	*
*^	*	*
8cc\ 8ee-\L	.	8aa-\ (8eee-\L	p
8dd-\ 8ff\	.	8gg\ 8bb-\	.
8cc\ 8ee-\J	.	8aa-\ 8eee-\J	.
*v	*v	*	*
=62	=62	=62
8dd-\ 8ff\L	8bb-\ 8aaa-\L	.
8cc\ 8ee-\	8aa-\ 8eee-\	.
[8b-\ [8dd-\	8ff\ 8bb-\	.
8e-\ 8b-\] &(8dd-\J]&)	8gg\ 8eee-\J)	.
*clefF4	*	*
=63	=63	=63
*^	*	*
8r	[2AA-\ [2E-\	8r	.
8c/ 8e-/L	.	8a-\ (8ee-\L	pp
8d-/ 8f/	.	8g\ 8b-\	.
8c/ 8e-/J	.	8a-\ 8ee-\J	.
=64	=64	=64	=64
8d-/ 8f/L	2AA-\] 2E-\]	8b-\ 8aa-\L	.
8c/ 8e-/	.	8a-\ 8ee-\	.
8B-/ 8d-/	.	8f\ 8b-\	.
8E-/J	.	8g\ 8ee-\J)	.
*v	*v	*	*
=65	=65	=65
(8AA-/	8r	.
4E-\ 4c\)	4.e-/ 4.a-/ 4.ee-/	.
([8EE-/	.	.
=66	=66	=66
8AAA-/) 8EE-/]	8r	.
4E-\ 4c\	4.e-/ 4.a-/ 4.ee-/	.
8EE-/	.	.
=67	=67	=67
[[AAA-q\LL	.	.
[[AA-q\	.	.
[E-q\JJ	.	.
2AAA-\_ 2AA-\_ 2E-\_ [2c\	[2a-\ [2ee-\ [2aa-\	ppp
=68	=68	=68
2AAA-\_ 2AA-\_ 2E-\_ 2c\_	2a-\_ 2ee-\_ 2aa-\_	.
=69	=69	=69
4AAA-\] 4AA-\] 4E-\] 4c\]	4a-\] 4ee-\] 4aa-\]	.
4r	4r	.
==	==	==
*-	*-	*-
!!!ENC: Craig Stuart Sapp
!!!END: 2008/07/13/
